Papirus-nordic/24x24/places/folder-nordic-templates.svg

<svg xmlns="http://www.w3.org/2000/svg" width="24" height="24" version="1"><rect width="20" height="12" x="2" y="9.5" rx="1" ry="1" opacity=".2"/><path d="M2 17c0 .554.446 1 1 1h18c.554 0 1-.446 1-1V6c0-.554-.446-1-1-1H11V4c0-.554-.446-1-1-1H3c-.554 0-1 .446-1 1" fill="#6c9b9a"/><rect width="20" height="12" x="2" y="8.5" rx="1" ry="1" opacity=".2"/><rect width="16" height="8" x="4" y="7" rx="1" ry="1" fill="#e4e4e4"/><rect width="20" height="12" x="2" y="9" rx="1" ry="1" fill="#82abaa"/><path d="M3 3c-.554 0-1 .446-1 1v.5c0-.554.446-1 1-1h7c.554 0 1 .446 1 1V4c0-.554-.446-1-1-1zm8 2v.5h10c.554 0 1 .446 1 1V6c0-.554-.446-1-1-1z" opacity=".1" fill="#fff"/><path d="M9.5 11c-.277 0-.5.223-.5.5v5h.5V16h.5v-4h2.5v2H14v4.5h.5V18h.5v-5l-2-2zm5 7.5v.5h.5v-.5zm-.5 0h-.5v.5h.5zm-.5 0V18H13v.5zm-.5 0h-.5v.5h.5zm-.5 0V18H12v.5zm-.5 0h-.5v.5h.5zm-.5 0V18H11v.5zm-.5 0h-.5v.5h.5zm-.5 0V18H10v.5zm-.5 0h-.5v.5h.5zm-.5 0V18H9v.5zm0-.5h.5v-.5h-.5zm0-.5V17H9v.5zm0-.5h.5v-.5h-.5z" fill="#4e6766"/></svg>

<svg xmlns="http://www.w3.org/2000/svg" width="24" height="24" version="1">
 <rect style="opacity:0.2" width="20" height="12" x="2" y="9.5" rx="1" ry="1"/>
 <path style="fill:#6c9b9a" d="M 2,17 C 2,17.554 2.446,18 3,18 H 21 C 21.554,18 22,17.554 22,17 V 6 C 22,5.446 21.554,5 21,5 H 11 V 4 C 11,3.446 10.554,3 10,3 H 3 C 2.446,3 2,3.446 2,4"/>
 <rect style="opacity:0.2" width="20" height="12" x="2" y="8.5" rx="1" ry="1"/>
 <rect style="fill:#e4e4e4" width="16" height="8" x="4" y="7" rx="1" ry="1"/>
 <rect style="fill:#82abaa" width="20" height="12" x="2" y="9" rx="1" ry="1"/>
 <path style="opacity:0.1;fill:#ffffff" d="M 3,3 C 2.446,3 2,3.446 2,4 V 4.5 C 2,3.946 2.446,3.5 3,3.5 H 10 C 10.554,3.5 11,3.946 11,4.5 V 4 C 11,3.446 10.554,3 10,3 Z M 11,5 V 5.5 H 21 C 21.554,5.5 22,5.946 22,6.5 V 6 C 22,5.446 21.554,5 21,5 Z"/>
 <path style="fill:#4e6766" d="M 9.5,11 C 9.223,11 9,11.223 9,11.5 V 16.5 H 9.5 V 16 H 10 V 12 H 12.5 V 14 H 14 V 18 18.5 H 14.5 V 18 H 15 V 13 L 13,11 Z M 14.5,18.5 V 19 H 15 V 18.5 Z M 14,18.5 H 13.5 V 19 H 14 Z M 13.5,18.5 V 18 H 13 V 18.5 Z M 13,18.5 H 12.5 V 19 H 13 Z M 12.5,18.5 V 18 H 12 V 18.5 Z M 12,18.5 H 11.5 V 19 H 12 Z M 11.5,18.5 V 18 H 11 V 18.5 Z M 11,18.5 H 10.5 V 19 H 11 Z M 10.5,18.5 V 18 H 10 V 18.5 Z M 10,18.5 H 9.5 V 19 H 10 Z M 9.5,18.5 V 18 H 9 V 18.5 Z M 9.5,18 H 10 V 17.5 H 9.5 Z M 9.5,17.5 V 17 H 9 V 17.5 Z M 9.5,17 H 10 V 16.5 H 9.5 Z"/>
</svg>
